src/assets/svg/dog.svg

<svg width="109" height="103" viewBox="0 0 109 103" fill="none" xmlns="http://www.w3.org/2000/svg">
<path d="M10.1313 61.5427C10.3321 60.3381 12.4401 44.2772 14.3473 29.3204C14.8492 25.0041 16.0538 20.8884 17.8606 17.074C7.72218 22.093 0.795898 32.5326 0.795898 44.5783V57.2263C0.795898 63.1488 4.71075 68.2682 10.0309 70.0751C9.62941 67.2644 9.62941 64.3533 10.1313 61.5427Z" fill="white"/>
<path d="M91.2393 17.074C93.0461 20.8884 94.2507 25.0041 94.7526 29.4208C96.6598 44.1768 98.7678 60.4385 98.9686 61.6431C99.4705 64.4537 99.4705 67.3648 98.9686 70.1754C104.389 68.3686 108.204 63.3495 108.204 57.3267V44.5783C108.304 32.5326 101.378 22.093 91.2393 17.074Z" fill="white"/>
<path d="M59.2178 90.1511C57.6117 89.2477 56.0056 88.2439 54.6002 87.0393C53.1949 88.2439 51.5888 89.2477 49.9827 90.1511C46.2686 92.1587 42.153 93.1625 37.937 93.3633C41.2496 99.085 47.4732 103 54.6002 103C61.7273 103 67.9509 99.085 71.2634 93.3633C67.0475 93.1625 62.9318 92.0584 59.2178 90.1511Z" fill="white"/>
<path d="M78.5912 85.9353C83.4095 84.3292 87.5251 81.117 90.0346 76.8006C92.6445 72.4842 93.5479 67.4652 92.7449 62.5465C92.6445 61.6431 90.135 42.6711 88.5289 30.1235C86.5213 12.9584 71.8657 0.00927734 54.6002 0.00927734C37.2343 0.00927734 22.6791 12.9584 20.5711 30.1235C18.965 42.6711 16.4554 61.6431 16.3551 62.5465C15.552 67.4652 16.5558 72.4842 19.0653 76.8006C21.6753 81.117 25.7909 84.4296 30.5088 85.9353C32.7171 86.6379 34.9255 87.0395 37.0335 87.0395C42.3537 87.0395 47.4731 85.0318 51.2876 81.4181V78.7079C50.3842 78.2059 49.1796 77.5033 47.975 76.5999C44.0602 73.7892 42.0526 70.6774 42.0526 67.5656C42.0526 61.2416 46.6701 57.5275 54.3994 57.5275C62.1287 57.5275 66.7462 61.2416 66.7462 67.5656C66.7462 70.7778 64.7386 73.7892 60.8238 76.5999C59.6192 77.5033 58.4146 78.2059 57.5112 78.7079V81.4181C61.3257 84.9315 66.4451 87.0395 71.7653 87.0395C74.1744 87.0395 76.3828 86.6379 78.5912 85.9353ZM34.8251 75.1945H28.5011V68.8705H34.8251V75.1945ZM43.8594 49.1959H37.5354V37.6521H43.8594V49.1959ZM80.5988 75.1945H74.2748V68.8705H80.5988V75.1945ZM65.2405 49.1959V37.6521H71.5645V49.1959H65.2405Z" fill="white"/>
<path d="M60.6233 67.5655C60.6233 66.4613 60.6233 63.8514 54.6005 63.8514C48.5776 63.8514 48.5776 66.4613 48.5776 67.5655C48.5776 69.1716 51.7898 71.6811 54.6005 73.2872C58.2142 71.38 60.6233 68.8705 60.6233 67.5655Z" fill="white"/>
</svg>

<svg xmlns="http://www.w3.org/2000/svg" width="109" height="103" fill="#fff"><path d="M10.13 61.543c.2-1.205 2.3-17.266 4.216-32.222a39.11 39.11 0 0 1 3.513-12.246C7.722 22.093.796 32.533.796 44.578v12.648c0 5.922 3.915 11.042 9.235 12.85-.4-2.8-.4-5.722.1-8.532zm81.1-44.47c1.807 3.814 3 7.93 3.513 12.347l4.216 32.222c.502 2.8.502 5.722 0 8.532 5.42-1.807 9.235-6.826 9.235-12.85V44.578c.1-12.046-6.826-22.485-16.965-27.504zM59.218 90.15c-1.606-.903-3.212-1.907-4.618-3.112-1.405 1.205-3 2.208-4.617 3.112-3.714 2.008-7.83 3-12.046 3.212C41.25 99.085 47.473 103 54.6 103s13.35-3.915 16.663-9.637a29.46 29.46 0 0 1-12.046-3.212zM78.6 85.935c4.818-1.606 8.934-4.818 11.443-9.135 2.6-4.316 3.513-9.335 2.7-14.254-.1-.903-2.6-19.875-4.216-32.423C86.52 12.958 71.866.01 54.6.01a34.28 34.28 0 0 0-34.029 30.114l-4.216 32.423c-.803 4.92.2 9.938 2.7 14.254 2.6 4.316 6.726 7.63 11.444 9.135 2.208.703 4.417 1.104 6.525 1.104 5.32 0 10.44-2.008 14.254-5.62v-2.7c-.903-.502-2.108-1.205-3.313-2.108-3.915-2.8-5.922-5.922-5.922-9.034 0-6.324 4.618-10.038 12.347-10.038s12.347 3.714 12.347 10.038c0 3.212-2.008 6.224-5.922 9.034-1.205.903-2.4 1.606-3.313 2.108v2.7c3.814 3.513 8.934 5.62 14.254 5.62 2.4 0 4.618-.402 6.826-1.104zm-43.766-10.74H28.5V68.87h6.324v6.324zm9.034-26h-6.324V37.652h6.324v11.544zm36.74 26h-6.324V68.87H80.6v6.324zm-15.358-26V37.652h6.324v11.544H65.24zm-4.617 18.37c0-1.104 0-3.714-6.023-3.714s-6.023 2.6-6.023 3.714c0 1.606 3.212 4.116 6.023 5.722 3.614-1.907 6.023-4.417 6.023-5.722z"/></svg>
